X:0945
T:Honble. Earl of Breadalbine's Strathsy.
M:C
L:1/8
Q:1/4=120
I: || ||
Z:Jack Campin * www.campin.me.uk * 2009
K:D
E|D2d>B A>GF>E|A>Bd>e feeE|D2 d>B A>GF>E|D>FE>G FDD||
g|f>dAd F>dA>d|A>Bde  feeg|f>dAd  F>dAF |D>FE>G FDD|]
<end>
<start>
